X: 1
T:Butterfly
R:slip jig
C:Tommy Potts
D:Bothy Band: 1975
M:9/8
L:1/8
Q:130
K:Edor
|:B2E G2E F3|B2E G2E FED|B2E G2E F2A|B2d d2B AFA:|
|:B2d e2f g3|B3 g2e dBA|B2d e2f g2a|b2a g2e dBA:|
|:B3 B2A G2A|~B3 BAB dBA|~B3 B2A G2A|B2d g2e dBA:|
